!!!!SEGMENT: pl-wtm--r-1459_stefani-jozef--sub-tuum-praesidium.krn
!!!cenid: 18xx:2176
!!!COM: Stefani, Józef
!!!COM-rismID: pe30024097
!!!CDT: 1800/04/16-1876/03/19
!!!CNT: Polish
!!!OTL: Sub tuum praesidium
!!!PDT:
!!!AGN:
!!!SMS-siglum: PL-Wtm
!!!SMS-shelfmark: R 1459
!!!SMS-shelfwork: W
!!!SMS-variant:
!!!SMS-altvar:
!!!NIFC-rismSourceID: 1001120707
!!!NIFC-rismChildID: 1001120707
!!!NIFC-islandoraID: pl-wtm:25856
!!!URL-pdf-islandora: https://repozytorium.nifc.pl/islandora/object/pl-wtm%3A25856/datastream/PDF/view
!!!URL-scan: https://polish.musicsources.pl/pl/lokalizacje/galeria/rekopisy/6274 @EN{Scan on Polish Music Sources Website} @PL{Skany w portalu Dziedzictwo Muzyki Polskiej w otwartym dostępie}
!!!IIIF:
!!!ONB-nifc: UWAGA: Na pierwszej stronie wykreślony początek marsza żałobnego
!!!AIN: 1 forte 2 vox
!!!key:
**kern	**kern	**kern	**text	**dynam	**kern	**text
*part3	*part3	*part2	*part2	*	*part1	*part1
*staff4	*staff3	*staff2	*staff2	*	*staff1	*staff1
*Iforte	*Iforte	*Ivox	*	*	*Ivox	*
*I"Fortepian	*I"Fortepian	*I"Głos 2 i 3	*	*	*I"Głos 1	*
*clefF4	*clefG2	*clefG2	*	*	*clefG2	*
*k[f#]	*k[f#]	*k[f#]	*	*	*k[f#]	*
*G:	*G:	*G:	*	*	*G:	*
*M4/4	*M4/4	*M4/4	*	*	*M4/4	*
*met(c)	*met(c)	*met(c)	*	*	*met(c)	*
!LO:TX:a:t=P:problem=na początku wielka pauza ósemkowa	!LO:TX:a:t=P:problem=na początku wielka pauza ósemkowa	!	!	!	!	!
8b>L\	8ddL/	1ryy	.	.	1ryy	.
8a#>\	8ff# 8cc#/	.	.	.	.	.
8b>\	8gg 8dd/	.	.	.	.	.
8a#>J\	8ff#J 8cc#/	.	.	.	.	.
8b>L\	8ggL 8dd/	.	.	.	.	.
8g#>\	8ee 8b/	.	.	.	.	.
8a#>\	8cc#/	.	.	.	.	.
8f#>\J	8ddJ 8a/	.	.	.	.	.
=2	=2	=2	=2	=2	=2	=2
*	*^	*	*	*	*	*
8g>L\	8bL/	2ryy	1ryy	.	.	1ryy	.
8e->\	8cc 8g/	.	.	.	.	.	.
8d>\	8b 8g/	.	.	.	.	.	.
8c>J\	8aJ 8f#/	.	.	.	.	.	.
8BL\	8ddL 8g/	8gL\	.	.	.	.	.
!	!LO:TX:a:t=P:problem=skreślone 8a	!	!	!	!	!	!
8A\	8dd#/	8f#J\	.	.	.	.	.
8G\	8ee/	4e\	.	.	.	.	.
8G#J\	8dd#J/	.	.	.	.	.	.
=3	=3	=3	=3	=3	=3	=3	=3
*^	*	*	*	*	*	*	*
4ryy	8AL	4a 4e\	8ccL/	1ryy	.	.	1ryy	.
.	8Gn	.	8cc#/	.	.	.	.	.
4F#	8F#	4a 4d\	8dd/	.	.	.	.	.
!	!LO:TX:a:t=P:problem=skreślona nuta	!	!	!	!	!	!	!
.	8DJ	.	8ccnJ/	.	.	.	.	.
2ryy	8GL	8dL\	4.b 4.g/	.	.	.	.	.
.	8D#	8f#\	.	.	.	.	.	.
.	8E	8g\	.	.	.	.	.	.
.	8AAJ	8aJ 8e\	16.ddLL/	.	.	.	.	.
.	.	.	32ccJJk/	.	.	.	.	.
*	*	*v	*v	*	*	*	*	*
*v	*v	*	*	*	*	*	*
!!LO:LB:g=original
=4	=4	=4	=4	=4	=4	=4
2.D 2.DD;</	8b 8g 8d/L	2.ryy	.	.	2.ryy	.
!	!LO:TX:b:t=rall.	!	!	!	!	!
.	8d 8B/J	.	.	.	.	.
.	4e 4c#/	.	.	.	.	.
!	!LO:TX:b:t=V&colon; S&colon;	!	!	!	!	!
.	4f# 4d 4cn;/	.	.	.	.	.
!!LO:PB:g=original
=||	=||	=||	=||	=||	=||	=||
4G 4GG/	4g 4d 4B/	4d 4B/	Sub	.	4g/	.
=5	=5	=5	=5	=5	=5	=5
*tremolo	*	*	*	*	*	*
*2\right	*	*	*	*	*	*
8GG\L	2.g 2.d 2.B/	2d 2B/	tu-	.	2g/	.
8G\	.	.	.	.	.	.
8GG\	.	.	.	.	.	.
8G\J	.	.	.	.	.	.
*rep	*	*	*	*	*	*
8GG\L	.	4d 4B/	-um	.	4g/	.
8G\	.	.	.	.	.	.
8GG\	4a 4e 4c/	4e 4c/	prae-	.	4a/	.
8G\J	.	.	.	.	.	.
*Xrep	*	*	*	*	*	*
=6	=6	=6	=6	=6	=6	=6
8GG\L	2cc 2g 2e-X/	4.g 4.e-X/	-si-	.	4.cc\	.
8G\	.	.	.	.	.	.
8GG\	.	.	.	.	.	.
8G\J	.	8g 8e-/	-di-	.	8cc\	.
*rep	*	*	*	*	*	*
8GG\L	4b 4g 4d/	8g 8d/	-um	.	8b\	.
8G\	.	8g 8d/	con-	.	8b\	.
8GG\	4b 4g 4d/	8g 8d/	-fu-	.	8b\	.
8G\J	.	8g 8d/	-gi-	.	8b\	.
*Xrep	*	*	*	*	*	*
=7	=7	=7	=7	=7	=7	=7
8GG\L	2a 2e 2c#X/	8e 8c#X/	-mus	.	8a/	.
8G\	.	8ryy	.	.	8ryy	.
!	!	!	!	!LO:DY:b:rj	!	!
8GG\	.	8e 8c#/	Sanc-	p	8a/	.
8G\J	.	8e 8c#/	-ta	.	8a/	.
*rep	*	*	*	*	*	*
8GG\L	4e 4cn/	4e 4cn/	De-	.	4e/	.
8G\	.	.	.	.	.	.
8GG\	4f# 4d 4c/	4d 4c/	-i	.	4f#/	.
8G\J	.	.	.	.	.	.
*Xrep	*	*	*	*	*	*
=8	=8	=8	=8	=8	=8	=8
8GG\L	4.g 4.d 4.B/	4.d 4.B/	ge-	.	4.g/	.
8G\	.	.	.	.	.	.
8GG\	.	.	.	.	.	.
8cJ 8C\	8ee 8cc 8g\	8g 8c/	-ni-	.	8ee\	.
!	!LO:TX:a:t=P:problem=skreślone 4b	!	!	!	!	!
4B 4BB\	4dd 4g\	4g 4B/	-trix,	.	4dd\	.
!	!LO:TX:a:t=P:problem=skreślone 4b	!	!	!	!	!
4B 4BB\	4dd 4g\	8g 8B/	nos-	.	8dd\	.
.	.	8g 8B/	-tras	.	8dd\	.
!!LO:LB:g=original
=9	=9	=9	=9	=9	=9	=9
*^	*^	*	*	*	*	*
!	!	!	!LO:N:vis=1	!	!	!	!	!
2A 2AA\	2.ryy	8dd/L	2g 2e\	8g 8e/	de-	.	8dd\	.
.	.	8cc#X/	.	8g 8e/	-pre-	.	8cc#X\	.
.	.	8b/	.	8g 8e/	-ca-	.	8b\	.
.	.	8cc#/J	.	8g 8e/	-ti-	.	8cc#\	.
4A 4D\	.	8dd/L	4f# 4d\	8f# 8d/	-o-	.	8dd\	.
.	.	8a/J	.	8f# 8d/	-nes	.	8a\	.
!	!	!	!	!LO:TX:a:t=P:problem=skreślone nuty	!	!	!LO:TX:a:t=P:problem=skreślone 8a	!
8G/L	4D\	8b/L	4d\	8g 8d/	ne	.	8b\	.
8F#/J	.	8a/J	.	8f# 8d/	des-	.	8a\	.
=10	=10	=10	=10	=10	=10	=10	=10	=10
*	*	*	*2\right	*	*	*	*	*
2A 2E\	2.ryy	4.a/	2c#X\	4.e 4.c#X/	-pi-	.	4.a/	.
.	.	8g/	.	8e 8c#/	-ci-	.	8g/	.
4A 4D\	.	4f#/	4d\	4d/	-as	.	4f#/	.
8G/L	4G 4D\	8b/L	4d\	8g 8d/	in	.	8b/	.
8F#/J	.	8a/J	.	8g 8d/	ne-	.	8b/	.
*v	*v	*	*	*	*	*	*	*
=11	=11	=11	=11	=11	=11	=11	=11
2A 2E\	4.a/	2c#X\	8e 8c#X/	-ces-	.	8a/	.
.	.	.	8e 8c#/	-si-	.	8a/	.
.	.	.	8e 8c#/	-ta-	.	8a/	.
.	8g/	.	8e 8c#/	-ti-	.	8g/	.
4A 4D\	4f#/	4d\	4d/	-bus	.	4f#/	.
8G\L	8b/L	4g\	(>4b 4g/	no-	.	((8b\L	.
8E\J	8ee/J	.	.	.	.	8ee\J)	.
=12	=12	=12	=12	=12	=12	=12	=12
2A\	4a/	2f#\	2a 2f#/	.	.	4a\	.
!	!	!	!LO:TX:a:t=P:problem=skreślone nuty	!	!	!	!
.	4dd/	.	.	.	.	(4dd\)	.
2A 2AA\	8dd/L	2g 2e\	2g 2e/)	.	.	(8dd\L	.
.	8cc#X/	.	.	.	.	8cc#X\	.
.	8b/	.	.	.	.	8b\)	.
!	!	!	!LO:TX:a:t=P:problem=skreślone nuty	!	!	!	!
.	8cc#/J	.	.	.	.	8cc#\J)	.
*	*v	*v	*	*	*	*	*
!!LO:LB:g=original
=13	=13	=13	=13	=13	=13	=13
8D\L	2.dd 2.f#/	2.f# 2.d/	-stri	.	2.dd\	stris,
8d\	.	.	.	.	.	.
8A\	.	.	.	.	.	.
8F#\J	.	.	.	.	.	.
4D\	.	.	.	.	.	.
4r	8a 8f#/	8a 8f#/	sed	.	4r	.
.	8a 8f#/	8a 8f#/	a	.	.	.
=14	=14	=14	=14	=14	=14	=14
1r	4.a 4.f#/	4.a 4.f#/	pe-	.	1r	.
.	8g 8e/	8g 8e/	-ri-	.	.	.
.	8f#L 8d/	8f# 8d/	-cu-	.	.	.
.	8e 8c#X/	8e 8c#X/	-lis	.	.	.
.	8f# 8d/	8f# 8d/	cun-	.	.	.
.	8gJ 8e/	8g 8e/	-ctis	.	.	.
=15	=15	=15	=15	=15	=15	=15
2r	4.f# 4.d/	4.f# 4.d/	li-	.	2r	.
.	8e 8c#X/	8e 8c#X/	-be-	.	.	.
4r	4e 4c#/	4e 4c#/	-ra	.	4r	.
!	!	!	!	!	!LO:TX:a:t=P:problem=skreślone 8a\	!
4g>\	4cc#X 4an/	8a 8g/	.	.	8cc#X/	sed
!	!	!	!	!	!LO:TX:a:t=P:problem=skreślone 8a	!
.	.	8a 8g/	.	.	8cc#\	a
=16	=16	=16	=16	=16	=16	=16
*	*^	*	*	*	*	*
4.f#>\	4.dd/	1a	4.a 4.f#/	.	.	4.dd\	pe-
8g>\	8cc#X/	.	8a 8g/	.	.	8cc#X\	-ri-
8f#>\L	8dd/L	.	8a 8f#/	.	.	8dd\	-cu-
8g>\	8cc#/	.	8a 8g/	.	.	8cc#\	-lis
8f#>\	8dd/	.	8a 8f#/	.	.	8dd\	cunc-
8d>\J	8ee/J	.	8a 8d/	.	.	8ff#\	-tis
*	*v	*v	*	*	*	*	*
=17	=17	=17	=17	=17	=17	=17
4.dd> 4.A>\	4.ff#/	4.dd 4.A\	.	.	4.ff#\	li-
8cc#X> 8a>\	8ee/	8cc#X 8a\	.	.	8ee\	-be-
4cc#> 4a>\	4ee/	4cc#X 4a\	.	.	4ee\	-ra
!LO:TX:a:t=P:problem=skreślone nuty	!	!	!	!	!	!
4A 4AA\	4cc#X 4a 4e/	4a 4g\	.	.	4cc#X\	nos
!!LO:PB:g=original
=18	=18	=18	=18	=18	=18	=18
*	*^	*	*	*	*	*
2G#X 2GG#X/	4.ee/	2b 2e\	2b 2g#X/	sem-	.	(4.ee\	.
.	8dd/	.	.	.	.	8dd\	.
4A 4AA/	4cc#X/	4a 4e\	8a/	-per	.	8cc#X\)	.
.	.	.	8a/	Vir-	.	8cc#\	.
4A 4AA/	4cc#/	4a 4e\	8a/	-go	.	8cc#\	.
.	.	.	8a/	glo-	.	8cc#\	.
=19	=19	=19	=19	=19	=19	=19	=19
*	*	*	*^	*	*	*	*
2G#X 2GG#X\	4.ee/	2b 2e\	2b 2g#X/	2.ryy	-rio-	.	(4.ee\	.
.	8dd/	.	.	.	.	.	8dd\)	.
4A 4AA\	4cc#X/	4a 4e\	4a/	.	-sa	.	4cc#X\	.
4Gn 4GGn\	4cc# 4a 4e/	4ryy	4a/	4gn\	et	.	4cc#\	.
*	*v	*v	*	*	*	*	*	*
*	*	*v	*v	*	*	*	*
=20	=20	=20	=20	=20	=20	=20
*	*	*	*	*	*2\right	*
!	!LO:TX:a:t=P:problem=skreślone 2a	!	!	!	!	!
2F# 2FF#/	2ee 2f#/	(2a (2f#/	be-	.	(2dd\	.
4G 4GG/	4b 4g/	4g/))	.	.	4b\)	.
4E 4EE/	4ee 4b 4g/	4b 4g/	-ne-	.	4ee\	.
=21	=21	=21	=21	=21	=21	=21
*	*^	*	*	*	*	*
2A 2AA/	4a [<4f#/	2ryy	(>2a 2f#/	-di-	.	(4a\	.
.	4dd 4f#/]	.	.	.	.	4dd\	.
2A 2E 2AA/	8dd/L	2g 2e\	2g 2e/)	.	.	8dd\L	.
.	8cc#X/	.	.	.	.	8cc#X\	.
.	8b/	.	.	.	.	8b\	.
.	8cc#/J	.	.	.	.	8cc#\J)	.
*	*v	*v	*	*	*	*	*
=22	=22	=22	=22	=22	=22	=22
8AL 8F# 8D\	2dd 2f# 2d/	2f# 2d/	-cta.	.	2dd\	.
8F#\	.	.	.	.	.	.
8A\	.	.	.	.	.	.
8F#\J	.	.	.	.	.	.
4D\	8r	8r	.	.	8r	.
.	(16d/LL	8d/	Do-	.	8dd\	.
.	16e/JJ	.	.	.	.	.
4r	16f#/LL	8d/	-mi-	.	8dd\	.
.	16g/	.	.	.	.	.
.	16a/	8d/	-na	.	8dd\	.
.	16b/JJ)	.	.	.	.	.
!!LO:LB:g=original
=23	=23	=23	=23	=23	=23	=23
*^	*^	*^	*	*	*	*
*	*	*	*2\right	*	*	*	*	*	*
!LO:N:vis=2	!	!	!	!	!	!	!	!	!
8D/L	2D\	4.cc 4.a/	2d\	4.a/	2d\	.	.	(>4.cc/	no-
8F#/	.	.	.	.	.	.	.	.	.
8A/	.	.	.	.	.	.	.	.	.
8G/J	.	8b 8g/	.	8g/	.	.	.	8b/)	.
8F#/	8D\	8a 8f#/	8d\	8f#/	8d\	.	.	8a/	-stra,
8r	4.ryy	(16c#/LL	4.ryy	8d/	4.ryy	.	.	8dd\	me-
.	.	16d/JJ	.	.	.	.	.	.	.
4r	.	16e/LL	.	8d/	.	.	.	8dd\	-dia-
.	.	16f#/	.	.	.	.	.	.	.
.	.	16g/	.	8d/	.	.	.	8dd\	-tix
.	.	16a/JJ)	.	.	.	.	.	.	.
*v	*v	*	*	*	*	*	*	*	*
=24	=24	=24	=24	=24	=24	=24	=24	=24
!	!	!LO:TX:b:t=P:problem=skreślone nuty	!	!	!	!	!	!
(8GG\L	4.b/	4.g\	4.g 4.d/	2ryy	.	.	(>4.b/	no-
8D\	.	.	.	.	.	.	.	.
8G\	.	.	.	.	.	.	.	.
8c\J)	8a/	8f#\	8f# 8c/	.	.	.	8a/)	.
8B\	8g/	8d\	8g 8B/	8ryy	.	.	8g/	-stra,
8r	16d/LL	4.ryy	16d/	16d\	.	.	16dd\	ad-
.	16e/JJ	.	16d/	16d\	.	.	16dd\	-vo-
4r	16f#/LL	.	8d/	8d\	.	.	8dd\	-ca-
.	16g/	.	.	.	.	.	.	.
.	16a/	.	8d/	8d\	.	.	8dd\	-ta
.	16b/JJ	.	.	.	.	.	.	.
=25	=25	=25	=25	=25	=25	=25	=25	=25
*^	*	*	*	*	*	*	*	*
!LO:N:vis=2	!LO:N:vis=2	!	!	!	!	!	!	!	!
8D/L	8D\	4.cc 4.a/	2d\	4.a/	2d\	.	.	(4.cc\	no-
!	!LO:N:vis=4	!	!	!	!	!	!	!	!
8F#/	8F#\	.	.	.	.	.	.	.	.
8A/	4ryy	.	.	.	.	.	.	.	.
8G/J	.	8b 8g/	.	8g/	.	.	.	8b\)	.
8F#/	8D\	8a 8f#/	8d\	8f#/	8d\	.	.	8a/	-stra,
8r	4.ryy	(16c#X/LL	4.ryy	16d/	16d\	.	.	16dd\	con-
.	.	16d/JJ	.	16d/	16d\	.	.	16dd\	-so-
4r	.	16e/LL	.	8d/	8d\	.	.	8dd\	-la-
.	.	16f#/	.	.	.	.	.	.	.
.	.	16g/	.	8d/	8d\	.	.	8dd\	-trix
.	.	16a/JJ)	.	.	.	.	.	.	.
*v	*v	*	*	*v	*v	*	*	*	*
!!LO:LB:g=original
=26	=26	=26	=26	=26	=26	=26	=26
8GG\L	4.b 4.g/	2d\	4.g/	.	.	(>4.b/	no-
8D\	.	.	.	.	.	.	.
8G\	.	.	.	.	.	.	.
8c\J	8a 8f#/	.	8f# 8c/	.	.	8a/)	.
4B\	4g/	4d\	4g 4B/	.	.	4g/	-stra,
!	!	!	!	!	!	!LO:N:vis=8.	!
4B 4BB\	4g 4d/	4ryy	8d 8B/	.	.	8g/	tu-
.	.	.	8d 8B/	.	.	8g/	-o
=27	=27	=27	=27	=27	=27	=27	=27
2c 2C\	2g/	1e\	4.e 4.c/	.	.	4.g/	Fi-
.	.	.	8e 8c/	.	.	8g/	-li-
4B 4BB\	4g 4d/	.	8d 8B/	.	.	8g/	-o
.	.	.	8d 8B/	.	.	8g/	nos
4B 4BB\	4g 4d/	.	8d 8B/	.	.	8g/	re-
.	.	.	8d 8B/	.	.	8g/	-co-
*	*v	*v	*	*	*	*	*
=28	=28	=28	=28	=28	=28	=28
2c 2C\	2g 2e-X/	2e-X 2c/	.	.	2g/	-men-
4B 4BB\	4g 4d/	4d 4B/	.	.	4g/	-da,
4B 4BB\	8gL 8d/	8d 8B/	.	.	8g/	tu-
.	8ddJ 8g/	8d 8B/	.	.	8dd\	-o
=29	=29	=29	=29	=29	=29	=29
2A 2AA\	4.dd 4.e/	4.e 4.A/	.	.	4.dd\	Fi-
.	8cc 8f#/	8f# 8A/	.	.	8cc\	-li-
4G 4GG\	4b 4g/	8g 8G/	.	.	8b\	-o
.	.	8g/	.	.	8b\	nos
4G 4GG\	4b 4g/	8g/	.	.	8b\	re-
.	.	8g/	.	.	8b\	-con
!!LO:PB:g=original
=30	=30	=30	=30	=30	=30	=30
*	*^	*^	*	*	*	*
2F# 2FF#/	4.dd/	2a 2d\	2a 2f#/	2ryy	men-	.	(4.dd\	.
.	8cc/	.	.	.	.	.	8cc\)	.
4G 4GG/	4b 4g 4d/	4ryy	4g/	4g\	-da,	.	4b\	.
8D\L	8aL 8f#/	4d\	8f# 8d/	4ryy	tu-	.	8a\	.
8G\J	8bJ 8g/	.	8g/	.	-o	.	8b\	.
*	*	*	*v	*v	*	*	*	*
=31	=31	=31	=31	=31	=31	=31	=31
!	!	!	!LO:N:vis=4.	!	!	!	!
2B 2E\	2g 2e/	2ryy	8.g 8.e/	Fi-	.	8.g/	.
!	!	!	!LO:N:vis=8	!	!	!	!
.	.	.	16g 16e/	-li-	.	16g/	.
.	.	.	4g 4e/	-o	.	4g/	.
2c 2C\	4a/	2e\	4e 4c/	nos	.	4a/	.
.	8g/L	.	8e 8c/	re-	.	8g/	.
.	8a/J	.	8e 8c/	-con-	.	8a/	.
=32	=32	=32	=32	=32	=32	=32	=32
2B 2BB\	2b/	2f# 2d#X\	8.d#X 8.B/	-ci-	.	8.b\	.
.	.	.	16d# 16B/	-li-	.	16b\	.
.	.	.	4d# 4B/	-a,	.	4b\	.
4r	4r	4ryy	4r	.	.	4r	.
8A\L	8cc/L	4e\	8e 8A/	tu-	.	8cc\	.
8c\J	8aJ 8e/	.	8e 8c/	-o	.	8a\	.
*	*v	*v	*	*	*	*	*
!!LO:LB:g=original
=33	=33	=33	=33	=33	=33	=33
*	*	*^	*	*	*	*
!	!LO:TX:b:t=P:problem=skreślone 1d	!	!	!	!	!LO:TX:a:t=P:problem=wykreślony fragment	!
1d	1b 1g	8.g 8.d/	2ryy	Fi-	.	8.b/	.
.	.	16g 16d/	.	-li-	.	16b/	.
.	.	4g 4d/	.	-o	.	4b/	.
.	.	8g/L	4d\	nos	.	8b\L	.
.	.	8b/J	.	.	.	8dd\J	.
.	.	8a 8d/	4ryy	re-	.	8cc\	.
.	.	8g 8d/	.	-pre-	.	8b\	.
=34	=34	=34	=34	=34	=34	=34	=34
*	*^	*	*	*	*	*	*
!	!LO:TX:b:t=P:problem=skreślone 1d	!	!	!	!	!	!	!
1d 1D	2.a/	4g\	(4g/	2d\	-sen-	.	(>2.a/	.
.	.	8f#\L	8f#/L	.	.	.	.	.
.	.	8e\J	8e/J	.	.	.	.	.
.	.	2f#\	2f#/)	2ryy	.	.	.	.
.	4dd/	.	.	.	.	.	4dd/)	.
=35	=35	=35	=35	=35	=35	=35	=35	=35
!	!	!	!	!	!	!	!LO:TX:a:t=P:problem=skreślone 2g	!
2.B 2.E\	2.b/	2.g\	2.g/	2.e\	-te.	.	2.b/	.
8cL 8C\	8eeL 8g 8e/	4ryy	8g 8e/	4ryy	tu-	.	8ee\	.
8AJ 8AA\	8ccJ 8a 8e/	.	8a 8e/	.	-o	.	8cc\	.
*	*v	*v	*	*	*	*	*	*
=36	=36	=36	=36	=36	=36	=36	=36
*	*	*	*	*	*	*^	*
!	!LO:TX:b:t=P:problem=skreślone 1d	!	!	!	!	!	!	!
1d 1D	1b 1g	8.g 8.d/	2ryy	Fi-	.	8.b/	2ryy	.
.	.	16g 16d/	.	-li-	.	16b/	.	.
.	.	4g 4d/	.	-o	.	4b/	.	.
.	.	8g/L	4d\	nos	.	8b\L	8b/	.
.	.	8b/J	.	.	.	8dd\J	4.ryy	.
!	!	!	!	!	!	!LO:TX:a:t=P:problem=skreślone 8b	!	!
.	.	8a/	8d\	re-	.	8gg\	.	.
.	.	8g/	8d\	-pre-	.	8b/	.	.
*	*	*	*	*	*	*v	*v	*
=37	=37	=37	=37	=37	=37	=37	=37
*	*^	*	*	*	*	*	*
!	!LO:TX:b:t=P:problem=skreślone 1d	!	!	!	!	!	!	!
2.d 2.D\	2.a/	4g\	(4g/	2.d\	-sen-	.	(>2.a/	.
.	.	8f#\L	8f#/L	.	.	.	.	.
.	.	8e\J	8e/J	.	.	.	.	.
.	.	2f#\	2f#/	.	.	.	.	.
4d> 4c 4D\	4dd/	.	.	4ryy	.	.	4dd/)	.
*	*v	*v	*	*	*	*	*	*
=38	=38	=38	=38	=38	=38	=38	=38
2.B 2.G\	2.g 2.d/	2.g/	2.B\	-te.	.	2.g/	.
4G\	4g/	(4g/)	4ryy	A-	.	(4g/	.
*	*	*v	*v	*	*	*	*
=39	=39	=39	=39	=39	=39	=39
!LO:N:vis=2	!	!	!	!	!	!
2.G 2.E 2.C\	2.cc 2.g 2.e/	2.g/	.	.	2.cc\	.
4G 4E 4C\	4ee 4cc 4g/	4cc\	.	.	4ee\	.
=40	=40	=40	=40	=40	=40	=40
1G 1D 1GG	1dd 1b 1g	1b)	-men	.	1dd)	.
!!LO:LB:g=original
=41	=41	=41	=41	=41	=41	=41
2.c 2.C\	2.cc 2.g 2.e/	1ryy	.	.	1ryy	.
4A 4AA/	4ee 4cc 4a/	.	.	.	.	.
=42	=42	=42	=42	=42	=42	=42
1G 1GG	1gg 1dd 1b	1ryy	.	.	1ryy	.
!!LO:PB:g=original
=||	=||	=||	=||	=||	=||	=||
*M2/1	*M2/1	*M2/1	*	*	*M2/1	*
*	*^	*^	*	*	*	*
!	!	!	!	!	!	!	!LO:TX:t=P:problem=część na 2/1 bez zaznaczonego metrum, być może rozbudowane zakończenie	!
[1d [>1D	1a	2g\	(2g/	[1d	sen-	.	(1a	sen-
.	.	4f#\	4f#/	.	.	.	.	.
.	.	4e\	4e/	.	.	.	.	.
1d] 1D]	2a/	1f#	1f#)	1d]	.	.	2a/	.
.	2dd/	.	.	.	.	.	2dd\)	.
*	*v	*v	*	*	*	*	*	*
=43	=43	=43	=43	=43	=43	=43	=43
*^	*	*	*	*	*	*	*
4E/	[>1E	1b 1g	[1g [1e	1ryy	-te.	.	[1b	-te.
4G/	.	.	.	.	.	.	.	.
4B/	.	.	.	.	.	.	.	.
[4e/	.	.	.	.	.	.	.	.
4e] 4E/	4E\]	4b 4g/	4g/]	4e\]	.	.	4b/]	.
*	*	*	*	*2\right	*	*	*	*
2c 2C\	2.ryy	2ee 2g 2e/	2g/	2e\	tu-	.	2ee\	tu-
4A 4AA\	.	4cc 4a 4e/	4a/	4e\	-o	.	4cc\	-o
=44	=44	=44	=44	=44	=44	=44	=44	=44
!	!	!LO:TX:t=P:LO:N:vis=1:problem	!	!	!	!	!	!
4D/	[>1D	[2b [2g/	4.g 4.d/	1ryy	Fi-	.	4.b\	Fi-
4F#/	.	.	.	.	.	.	.	.
.	.	.	8g 8d/	.	-li-	.	8b\	-li-
(4G/	.	2b] 2g/]	2g 2d/	.	-o	.	2b\	-o
4B/	.	.	.	.	.	.	.	.
1ryy	1d) 1D]	4b 4g/	(4g/	2d\	nos	.	(4b\	nos
.	.	4dd 4b/	4b/)	.	.	.	4dd\)	.
.	.	4gg 4b\	4b/	4d\	re-	.	4gg\	re-
.	.	4b 4g/	4g/	4d\	-prae-	.	4b\	-prae-
*v	*v	*	*	*	*	*	*	*
!!LO:LB:g=original
=45	=45	=45	=45	=45	=45	=45	=45
*	*^	*	*	*	*	*^	*
1d 1D	2a/	2g\	((2g/	[1d	-sen-	.	[>1a	1.ryy	-sen-
.	2ryy	4f#\	4f#/	.	.	.	.	.	.
.	.	4e\	4e/	.	.	.	.	.	.
2d 2D\	1f#	2a/	2f#/)	2d\]	.	.	2a/]	.	.
2c 2D\	.	2dd 2d/	2ryy	2c\)	.	.	2dd/	2dd\	.
*	*	*	*v	*v	*	*	*	*	*
*	*	*	*	*	*	*v	*v	*
=46	=46	=46	=46	=46	=46	=46	=46
*^	*	*	*	*	*	*	*
[1B [1G	1.ryy	[1g [1d	1.ryy	[1g [1B	te.	.	[>1g	-te.
2B] 2G\]	.	2g] 2d/]	.	2g/] 2B/]	.	.	2g/]	.
2G/	2G\	2g/	2g\	(>2g/	A-	.	(2g/	A-
*v	*v	*	*	*	*	*	*	*
*	*v	*v	*	*	*	*	*
=47	=47	=47	=47	=47	=47	=47
[1G [>1C	[1cc [>1g [>1e	[1g [>1e	.	.	[1cc	.
2G] 2C\]	2cc] 2g] 2e/]	2g] 2e/]	.	.	2cc\]	.
2G 2C\	2ee 2cc 2g/	2cc 2g/)	.	.	2ee\	.
=48	=48	=48	=48	=48	=48	=48
0G 0D 0GG	0dd 0g	0b 0g	-men.	.	0dd)	-men.
=49	=49	=49	=49	=49	=49	=49
[1c [>1C	[1cc [>1g [>1e	1r	.	.	1r	.
2c] 2C\]	2cc] 2g] 2e/]	1r	.	.	1r	.
2A 2AA\	2ee 2cc 2a/	.	.	.	.	.
!!LO:LB:g=original
=50	=50	=50	=50	=50	=50	=50
0G 0GG;	0gg 0dd 0b;	1r	.	.	1r	.
.	.	1r;	.	.	1r;	.
==	==	==	==	==	==	==
*-	*-	*-	*-	*-	*-	*-
!!!system-decoration: {s1,s2}{(s3,s4)}
!!!RDF**kern: > = above
!!!RDF**kern: < = below
!!!ENC: Marta Lawrence
!!!END: 2021-06-03
!!!ENC: Tomasz Grochalski
!!!END: 2021-05-16
!!!YEC: Copyright 2022 Narodowy Instytut Fryderyka Chopina (https://polishscores.org)
!!!YEM: License CC-BY-4.0 (https://creativecommons.org/licenses/by/4.0)
